!!!COM: colbie-caillat
!!!OTL: realize
!!!RNB: hooktheoryid: EzngRNPBgJj
**kern	**text
*clefG2	*
*k[b-e-a-d-g-]	*
*M4/4	*
=1	=1
4r	Gb
8d-	.
8e-	.
2f	.
=2	=2
8d-	Bbm
8e-	.
4.f	.
8d-	.
4e-	.
=3	=3
8r	Ab
8d-	.
8e-	.
8d-	.
8e-	.
8d-	.
8e-	.
8d-	.
=4	=4
4e-	.
4f	.
4d-	.
4c	.
=5	=5
4B-	Gb
8d-	.
8e-	.
2f	.
=6	=6
8d-	Bbm
8e-	.
4.f	.
8d-	.
8d-	.
[8e-	.
=7	=7
1e-	Ab/C
=8	=8
2r	.
8d-	.
8e-	.
4f	.
=9	=9
1r	.
*-	*-